X:1
T: Doctor Faustus's Jigg
N:
C:
S:
A:
O:
R:
M:6/8
K:D
I:speed 150
%W: A1
% voice 1 (1 lines, 42 notes)
K:D
M:6/8
L:1/16
D2 |F2 G2 A2 A2 B2 c2 d2 c2 B2 A2 B2 c2 d2 c2 B2 A2 G2 F2 D6 d6 |F2 G2 A2 A2 B2 c2 d2 c2 B2 A2 B2 c2 d2 e2 f2 g2 f2 e2 d6 F4 D2 |
%W: A2
% voice 1 (1 lines, 41 notes)
F2 G2 A2 A2 B2 c2 d2 c2 B2 A2 B2 c2 d2 c2 B2 A2 G2 F2 D6 d6 |F2 G2 A2 A2 B2 c2 d2 c2 B2 A2 B2 c2 d2 e2 f2 g2 f2 e2 d6 F4 A2 |
%W: B1
% voice 1 (1 lines, 26 notes)
d2 e2 f2 f2 e2 d2 e2 f2 g2 g2 f2 e2 d2 e2 f2 B4 B2 A6 d6 |G2 A2 B2 F4 A2 E6 e6
%W:
% voice 1 (1 lines, 22 notes)
F2 G2 A2 E4 F2 D6 d6 |G2 A2 B2 F4 A2 E6 e6 F2 G2 A2 E4 F2 D8D2 A2 |
%W: B2
% voice 1 (1 lines, 26 notes)
d2 e2 f2 f2 e2 d2 e2 f2 g2 g2 f2 e2 d2 e2 f2 B4 B2 A6 d6 |G2 A2 B2 F4 A2 E6 e6
%W:
% voice 1 (1 lines, 21 notes)
F2 G2 A2 E4 F2 D6 d6 |G2 A2 B2 F4 A2 E6 e6 F2 G2 A2 E4 F2 D8D2 ||
